.local/share/icons/Gruvbox-Plus-Dark/panel/16/weather-windy.svg

<svg width="16" height="16" version="1.1" xmlns="http://www.w3.org/2000/svg">
  <defs>
    <style id="current-color-scheme" type="text/css">.ColorScheme-Text { color:#ebdbb2; } .ColorScheme-Highlight { color:#458588; } .ColorScheme-NeutralText { color:#fe8019; } .ColorScheme-PositiveText { color:#689d6a; } .ColorScheme-NegativeText { color:#fb4934; }</style>
  </defs>
  <path class="ColorScheme-Text" d="m8 0.003809c-1.332 0-1.332 1.996 0 1.996 0 0 1 0 1 1s-1 1-1 1l-6.994 4.79e-5c-1.332 9.1e-6 -1.332 2 0 2h7.008s0.7064 0.01298 1.441-0.3574c0.7351-0.3705 1.541-1.312 1.541-2.643s-0.806-2.272-1.541-2.643c-0.735-0.371-1.456-0.3536-1.456-0.3536zm5.008 2.996c-1.327 0-1.332 1.991-0.01563 2 0 0 1.014 9.82e-5 1.007 1 0.0072 1-1 1-1 1l-7.984-8.1e-6c-1.332-1.4e-6 -1.332 2 0 2h7.992s0.7064 0.01298 1.441-0.3574c0.735-0.3705 1.543-1.312 1.543-2.643s-0.808-2.272-1.543-2.643c-0.735-0.3704-1.441-0.3574-1.441-0.3574zm-12 7c-1.332 0-1.332 2 0 2l6.992 4.9e-5s1.007 4.9e-5 1 1c0 1-1 1-1 1-1.332 0-1.316 2 0.0162 2 0 0 0.7084 0.01258 1.443-0.3574 0.7351-0.371 1.541-1.312 1.541-2.643 0-1.331-0.806-2.272-1.541-2.643-0.7351-0.37-1.443-0.3575-1.443-0.3575z" fill="currentColor"/>
</svg>

<svg xmlns="http://www.w3.org/2000/svg" width="16" height="16" version="1.1">
 <defs>
  <style id="current-color-scheme" type="text/css">
   .ColorScheme-Text { color:#ebdbb2; } .ColorScheme-Highlight { color:#458588; }
  </style>
 </defs>
 <path style="fill:currentColor" class="ColorScheme-Text" d="M 8.0208,0 A 0.99921,1.0001 0 1 0 8.0208,2 C 8.0208,2 8.3062,2.013 8.5633,2.1426 8.8204,2.2721 9.0062,2.331 9.0062,3 9.0062,3.669 8.8204,3.7279 8.5633,3.8574 8.3062,3.987 8.0208,4 8.0208,4 H 1.0133 A 0.99921,1.0001 0 1 0 1.0133,6 H 8.0208 C 8.0208,6 8.7278,6.013 9.4629,5.6426 10.198,5.2721 11.004,4.331 11.004,3 11.004,1.669 10.198,0.72785 9.4629,0.35742 8.7278,-0.01301 8.0208,0 8.0208,0 Z M 13.016,3 A 0.99921,1.0001 0 1 0 13.016,5 C 13.016,5 13.302,5.013 13.559,5.1426 13.816,5.2721 14.002,5.331 14.002,6 14.002,6.669 13.816,6.7279 13.559,6.8574 13.302,6.987 13.016,7 13.016,7 H 5.0234 A 0.99921,1.0001 0 1 0 5.0234,9 H 13.016 C 13.016,9 13.723,9.013 14.458,8.6426 15.193,8.2721 16,7.331 16,6 16,4.669 15.193,3.7279 14.458,3.3574 13.723,2.987 13.016,3 13.016,3 Z M 1.0133,10 A 0.99921,1.0001 0 1 0 1.0133,12 H 8.0208 C 8.0208,12 8.3062,12.013 8.5633,12.143 8.8204,12.272 9.0062,12.331 9.0062,13 9.0062,13.669 8.8204,13.728 8.5633,13.857 8.3062,13.987 8.0208,14 8.0208,14 A 0.99921,1.0001 0 1 0 8.0208,16 C 8.0208,16 8.7278,16.013 9.4629,15.643 10.198,15.272 11.004,14.331 11.004,13 11.004,11.669 10.198,10.728 9.4629,10.357 8.7278,9.987 8.0208,10 8.0208,10 Z"/>
</svg>
